;FLAVOR:Marlin
;TIME:8363.59
;Filament used:2.1483m
;Material Diameter:1.75
;Material Density:1.24
;Filament Cost:0.000000
;Filament Weight:6.407413
;Filament Length:2.148301
;Layer height:0.1
;MINX:97.96
;MINY:97.96
;MINZ:0.1
;MAXX:122.04
;MAXY:122.04
;MAXZ:70
;OuterWall Time:1843.41
;InnerWall Time:3325.12
;Skin Time:547.134
;Support Time:0
;SkirtBrim Time:12.4559
;Infill Time:1772.47
;Support Infills Time:0
;Combing Time:346.928
;Retraction Time:516.074
;PrimeTower Time:0

;;;;;;;;;;;;;;;;;;;;;;;;;;;;;;;;;;;;;;;;;;;;;;;;;;;;;;;;;;;;;;;;;;;;;;;;;;;;
;Creality Print GCode Generated by CXEngine
;CRSLICE_GIT_HASH:3c9d151
;Creality Print Version : V4.3.8.6991
;CXEngine Release Time:2023-12-12 13:20:11
;Gcode Generated Time:2024-11-28 00:28:21
;----------Machine Config--------------
;Machine Name:Creality Ender-3
;Machine Height:250
;Machine Width:220
;Machine Depth:220
;Material Type:PLA
;Material Name:Ender-PLA_1.75
;Number of Extruders:1
;ExtruderParams[0] Nozzle Diameter:1000
;----------Profile Config---------------
;Wall Thickness:1.2
;Top/Bottom Thickness:0.84
;Out Wall Line Width:0.4
;Inner Wall Line Width:0.4
;Inital Height:100
;Wall Line Count:3
;Infill Line Distance:2.42
;Infill Pattern:grid
;Infill Sparse Density:33
;Infill Wipe Distance:0
;Print Temperature:200
;Bed Temperature:60
;Support Enable:false
;Support Density:20
;Support Angle:59
;Adhesion Type:skirt
;machine is belt:false
;machine belt offset:10
;machine belt offset Y:0
;Raft Base Line Spacing:1.6
;Wait Heatup Sync:true
;Enable Ironing:false
;Material Type:PLA
;Max volumetric speed:10
;Preview Img Type:png
;Screen Size:Sermoon D3
;----------Shell Config----------------
;Outer Wall Wipe Distance:2000
;Outer Inset First:false
;Infill Before Walls:false
;Infill Overlap:0.12
;Fill Gaps Between Walls:everywhere
;Minimum Infill Area:15
;Top Surface Skin Layer:0
;Top Layers:9
;Z Seam Alignment:sharpest_corner
;Seam Corner Preference:z_seam_corner_weighted
;Z Seam X:110
;Z Seam Y:220
;Horizontal Expansion:0
;Top/Bottom Pattern:zigzag
;Ironing Pattern:zigzag
;Vase Model:false
;----------Support Config----------------
;Support Type:everywhere
;Support Pattern:zigzag
;Support Infill Layer Thickness:0.2
;Minimum Support Area:1
;Enable Support Roof:true
;Support Roof Thickness:0.8
;Support Roof Pattern:lines
;Connect Support Lines:0
;Connect Support ZigZags:1
;Minimum Support X/Y Distance:0.2
;Support Line Distance:2
; ---------PrintSpeed & Travel----------
;Enable Print Cool:true
;Avoid Printed Parts Traveling:true
;Enable Retraction:true
;Retraction Distance:5
;Retraction Speed:25
;Retraction Prime Speed:25
;Maximum Retraction Count:100
;Minimum Extrusion Distance Window:2
;Z Hop When Retracted:false
;Z Hop Height:0.2
;Retract Before Outer Wall:true

;Outer Wall Speed:50
;Inner Wall Speed:50
;Infill Speed:50
;Top/Bottom Speed:50
;Travel Speed:120
;Initial Layer Speed:25
;Skirt/Brim Speed:25
;Prime Tower Speed:60
;Outer Wall Acceleration:500
;Inner Wall Acceleration:500
;Infill Acceleration:500
;Top/Bottom Acceleration:500
;Travel Acceleration:500
;Initial Layer Print Acceleration:500
;Initial Layer Travel Acceleration:500
;Skirt/Brim Acceleration:500
;Combing Mode:off
; --------SpecialModel&Mesh Fixes--------
;Union Overlapping Volum:true
;Remove All Holes:false
;Maximum Travel Resolution:0.25
;Maximum Deviation:0.05
;Maximum Model Angle:0.872665
;IS Mold Print:false
;Make Overhang Printable:false
;Enable Coasting:false
;Coasting Volumes:0.064
;Coasting Speed:0.9
;Raft AirGap:0.25
;Layer0 ZOverLap:0.13
;Adaptive Layers:0
;---------------------End of Head--------------------------
M140 S60
M105
M190 S60
M104 S200
M82 ;absolute extrusion mode
M220 S100 ;Reset Feedrate
M221 S100 ;Reset Flowrate

G28 ;Home

G92 E0 ;Reset Extruder
G1 Z2.0 F3000 ;Move Z Axis up
G1 X10.1 Y20 Z0.28 F5000.0 ;Move to start position
M109 S200.000000
G1 X10.1 Y145.0 Z0.28 F1500.0 E15 ;Draw the first line
G1 X10.4 Y145.0 Z0.28 F5000.0 ;Move to side a little
G1 X10.4 Y20 Z0.28 F1500.0 E30 ;Draw the second line
G92 E0  ;Reset Extruder
G1 E-1.0000 F1800 ;Retract a bit
G1 Z2.0 F3000 ;Move Z Axis up
G1 E0.0000 F1800 

G92 E0
G92 E0
G1 F1500 E-5
;LAYER_COUNT:700

;LAYER:0
M106 S0
M204 S500
G0 F4800 X99.379 Y99.22 Z0.1
;TYPE:SKIRT
G1 F1500 E0
G1 X98.971 Y99.664 E0.01103
G1 X98.626 Y100.157 E0.02204
G1 X98.349 Y100.692 E0.03306
G1 X98.145 Y101.258 E0.04406
G1 X98.018 Y101.847 E0.05509
G1 X97.969 Y102.448 E0.06612
G1 X97.96 Y103.113 E0.07828
G1 X97.96 Y117.158 E0.33521
G1 X97.971 Y117.614 E0.34355
G1 X97.991 Y117.933 E0.3494
G1 X98.089 Y118.527 E0.36041
G1 X98.265 Y119.103 E0.37143
G1 X98.516 Y119.651 E0.38246
G1 X98.837 Y120.16 E0.39347
G1 X99.222 Y120.623 E0.40448
G1 X99.666 Y121.03 E0.4155
G1 X100.159 Y121.376 E0.42652
G1 X100.694 Y121.653 E0.43754
G1 X101.261 Y121.856 E0.44855
G1 X101.85 Y121.983 E0.45958
G1 X102.45 Y122.031 E0.47059
G1 X103.148 Y122.04 E0.48336
G1 X104.67 Y122.04 E0.5112
G1 X105.12 Y122.029 E0.51943
G1 X105.823 Y121.955 E0.53237
G1 X106.406 Y121.806 E0.54337
G1 X106.965 Y121.581 E0.5544
G1 X107.489 Y121.284 E0.56541
G1 X107.969 Y120.92 E0.57643
G1 X108.397 Y120.496 E0.58745
G1 X108.669 Y120.188 E0.59497
G1 X109.948 Y118.693 E0.63096
G1 X111.742 Y116.707 E0.67992
G1 X113.607 Y114.757 E0.72928
G1 X115.539 Y112.847 E0.77898
G1 X117.532 Y110.989 E0.82882
G1 X119.532 Y109.225 E0.87761
G1 X120.442 Y108.446 E0.89952
G1 X121.026 Y107.845 E0.91485
G1 X121.372 Y107.352 E0.92587
G1 X121.649 Y106.817 E0.93689
G1 X121.854 Y106.251 E0.9479
G1 X121.981 Y105.662 E0.95892
G1 X122.03 Y105.061 E0.96995
G1 X122.04 Y104.357 E0.98283
G1 X122.04 Y102.83 E1.01076
G1 X122.029 Y102.382 E1.01896
G1 X122.01 Y102.075 E1.02459
G1 X121.913 Y101.48 E1.03562
G1 X121.737 Y100.904 E1.04664
G1 X121.488 Y100.356 E1.05765
G1 X121.167 Y99.846 E1.06867
G1 X120.782 Y99.383 E1.07969
G1 X120.339 Y98.975 E1.0907
G1 X119.846 Y98.629 E1.10172
G1 X119.312 Y98.351 E1.11273
G1 X118.745 Y98.147 E1.12376
G1 X118.156 Y98.019 E1.13478
G1 X117.556 Y97.97 E1.14579
G1 X116.858 Y97.96 E1.15856
G1 X102.83 Y97.96 E1.41518
G1 X102.382 Y97.971 E1.42338
G1 X102.07 Y97.99 E1.4291
G1 X101.476 Y98.088 E1.44011
G1 X100.9 Y98.264 E1.45113
G1 X100.352 Y98.514 E1.46214
G1 X99.842 Y98.835 E1.47317
G1 X99.379 Y99.22 E1.48418
G0 F4800 X99.809 Y99.424
G1 F1500 X99.405 Y99.83 E1.49466
G1 X99.063 Y100.288 E1.50512
G1 X98.787 Y100.79 E1.5156
G1 X98.584 Y101.325 E1.52606
G1 X98.457 Y101.883 E1.53653
G1 X98.409 Y102.454 E1.54702
G1 X98.4 Y103.119 E1.55918
G1 X98.401 Y117.269 E1.81803
G1 X98.41 Y117.602 E1.82412
G1 X98.462 Y118.147 E1.83414
G1 X98.593 Y118.704 E1.8446
G1 X98.8 Y119.238 E1.85508
G1 X99.079 Y119.738 E1.86556
G1 X99.426 Y120.193 E1.87602
G1 X99.832 Y120.596 E1.88649
G1 X100.29 Y120.939 E1.89696
G1 X100.792 Y121.214 E1.90743
G1 X101.327 Y121.417 E1.91789
G1 X101.886 Y121.543 E1.92838
G1 X102.456 Y121.591 E1.93884
G1 X103.154 Y121.6 E1.95161
G1 X104.67 Y121.6 E1.97934
G1 X105.108 Y121.589 E1.98736
G1 X105.602 Y121.546 E1.99643
G1 X106.161 Y121.422 E2.0069
G1 X106.697 Y121.221 E2.01737
G1 X107.199 Y120.947 E2.02784
G1 X107.659 Y120.606 E2.03831
G1 X108.067 Y120.205 E2.04878
G1 X108.383 Y119.846 E2.05752
G1 X109.598 Y118.424 E2.09174
G1 X111.427 Y116.401 E2.14163
G1 X113.308 Y114.433 E2.19143
G1 X115.223 Y112.54 E2.24069
G1 X117.233 Y110.665 E2.29097
G1 X119.246 Y108.891 E2.34005
G1 X120.156 Y108.112 E2.36197
G1 X120.592 Y107.678 E2.37322
G1 X120.935 Y107.22 E2.38369
G1 X121.211 Y106.719 E2.39415
G1 X121.415 Y106.184 E2.40462
G1 X121.542 Y105.626 E2.41509
G1 X121.59 Y105.055 E2.42558
G1 X121.6 Y104.351 E2.43846
G1 X121.6 Y102.83 E2.46628
G1 X121.589 Y102.395 E2.47424
G1 X121.539 Y101.86 E2.48407
G1 X121.409 Y101.302 E2.49455
G1 X121.203 Y100.768 E2.50502
G1 X120.924 Y100.268 E2.51549
G1 X120.578 Y99.812 E2.52596
G1 X120.173 Y99.408 E2.53643
G1 X119.714 Y99.065 E2.54691
G1 X119.213 Y98.789 E2.55737
G1 X118.678 Y98.586 E2.56784
G1 X118.12 Y98.459 E2.57831
G1 X117.55 Y98.41 E2.58878
G1 X116.852 Y98.4 E2.60155
G1 X102.83 Y98.4 E2.85805
G1 X102.394 Y98.411 E2.86603
G1 X101.855 Y98.461 E2.87593
G1 X101.298 Y98.592 E2.8864
G1 X100.764 Y98.799 E2.89688
G1 X100.265 Y99.078 E2.90733
G1 X99.809 Y99.424 E2.91781
G0 F4800 X100.236 Y99.64
G1 F1500 X99.838 Y100.006 E2.9277
G1 X99.499 Y100.427 E2.93758
G1 X99.225 Y100.893 E2.94747
G1 X99.023 Y101.395 E2.95737
G1 X98.897 Y101.921 E2.96727
G1 X98.849 Y102.459 E2.97715
G1 X98.84 Y103.124 E2.98931
G1 X98.841 Y117.257 E3.24785
G1 X98.85 Y117.59 E3.25394
G1 X98.943 Y118.315 E3.26731
G1 X99.103 Y118.831 E3.2772
G1 X99.338 Y119.318 E3.28709
G1 X99.642 Y119.766 E3.29699
G1 X100.008 Y120.163 E3.30687
G1 X100.429 Y120.503 E3.31677
G1 X100.896 Y120.776 E3.32667
G1 X101.397 Y120.978 E3.33655
G1 X101.923 Y121.104 E3.34644
G1 X102.462 Y121.151 E3.35634
G1 X103.16 Y121.16 E3.36911
G1 X104.772 Y121.159 E3.3986
G1 X105.096 Y121.15 E3.40453
G1 X105.389 Y121.13 E3.4099
G1 X105.92 Y121.032 E3.41978
G1 X106.432 Y120.857 E3.42967
G1 X106.912 Y120.608 E3.43957
G1 X107.35 Y120.291 E3.44946
G1 X107.737 Y119.914 E3.45934
G1 X108.049 Y119.561 E3.46796
G1 X109.299 Y118.098 E3.50316
G1 X111.093 Y116.113 E3.5521
G1 X112.992 Y114.127 E3.60237
G1 X114.925 Y112.216 E3.65209
G1 X116.934 Y110.342 E3.70235
G1 X118.96 Y108.556 E3.75176
G1 X119.87 Y107.777 E3.77367
G1 X120.159 Y107.501 E3.78098
G1 X120.499 Y107.081 E3.79087
G1 X120.773 Y106.615 E3.80075
G1 X120.976 Y106.113 E3.81066
G1 X121.102 Y105.588 E3.82054
G1 X121.15 Y105.049 E3.83044
G1 X121.16 Y104.345 E3.84331
G1 X121.159 Y102.727 E3.87291
G1 X121.15 Y102.407 E3.87877
G1 X121.058 Y101.691 E3.89197
G1 X120.899 Y101.175 E3.90185
G1 X120.665 Y100.687 E3.91175
G1 X120.362 Y100.239 E3.92165
G1 X119.996 Y99.841 E3.93154
G1 X119.575 Y99.501 E3.94144
G1 X119.109 Y99.227 E3.95133
G1 X118.608 Y99.025 E3.96121
G1 X118.082 Y98.898 E3.97111
G1 X117.543 Y98.85 E3.981
G1 X116.845 Y98.84 E3.99377
G1 X102.727 Y98.841 E4.25204
G1 X102.406 Y98.85 E4.25791
G1 X101.688 Y98.942 E4.27115
G1 X101.171 Y99.102 E4.28105
G1 X100.684 Y99.337 E4.29094
G1 X100.236 Y99.64 E4.30084
G0 F4800 X100.661 Y99.872
G1 F1500 X100.27 Y100.195 E4.31012
G1 X99.934 Y100.575 E4.31939
G1 X99.663 Y101.003 E4.32866
G1 X99.462 Y101.469 E4.33794
G1 X99.336 Y101.96 E4.34722
G1 X99.289 Y102.465 E4.3565
G1 X99.28 Y103.13 E4.36866
G1 X99.281 Y117.245 E4.62687
G1 X99.29 Y117.578 E4.63296
G1 X99.32 Y117.937 E4.63955
G1 X99.43 Y118.432 E4.64883
G1 X99.616 Y118.904 E4.65811
G1 X99.873 Y119.341 E4.66738
G1 X100.196 Y119.732 E4.67666
G1 X100.577 Y120.067 E4.68594
G1 X101.005 Y120.338 E4.69521
G1 X101.471 Y120.539 E4.70449
G1 X101.962 Y120.664 E4.71376
G1 X102.467 Y120.711 E4.72304
G1 X103.165 Y120.72 E4.73581
G1 X104.759 Y120.719 E4.76497
G1 X105.083 Y120.71 E4.7709
G1 X105.686 Y120.636 E4.78201
G1 X106.172 Y120.488 E4.7913
G1 X106.628 Y120.266 E4.80058
G1 X107.043 Y119.975 E4.80985
G1 X107.408 Y119.622 E4.81914
G1 X107.714 Y119.275 E4.8276
G1 X108.949 Y117.829 E4.86239
G1 X110.777 Y115.806 E4.91227
G1 X112.676 Y113.822 E4.96251
G1 X114.626 Y111.894 E5.01267
G1 X116.637 Y110.018 E5.06298
G1 X118.674 Y108.222 E5.11266
G1 X119.584 Y107.443 E5.13457
G1 X120.063 Y106.932 E5.14738
G1 X120.335 Y106.504 E5.15666
G1 X120.537 Y106.039 E5.16594
G1 X120.663 Y105.548 E5.17521
G1 X120.71 Y105.043 E5.18449
G1 X120.72 Y104.339 E5.19737
G1 X120.719 Y102.739 E5.22663
G1 X120.71 Y102.419 E5.23249
G1 X120.681 Y102.069 E5.23892
G1 X120.572 Y101.573 E5.2482
G1 X120.386 Y101.101 E5.25749
G1 X120.129 Y100.664 E5.26676
G1 X119.807 Y100.273 E5.27603
G1 X119.427 Y99.937 E5.2853
G1 X118.999 Y99.665 E5.29458
G1 X118.533 Y99.463 E5.30387
G1 X118.042 Y99.338 E5.31314
G1 X117.537 Y99.29 E5.32242
G1 X116.839 Y99.28 E5.33519
G1 X102.74 Y99.281 E5.5931
G1 X102.419 Y99.29 E5.59898
G1 X102.065 Y99.32 E5.60548
G1 X101.57 Y99.429 E5.61475
G1 X101.098 Y99.615 E5.62403
G1 X100.661 Y99.872 E5.6333
;;retract move;;
G1 F3840 X100.27 Y100.195 E4.4458
G1 X99.934 Y100.575 E3.2583
G1 X99.663 Y101.003 E2.0708
G1 X99.473 Y101.444 E0.8833
G1 F1500 E0.6333
;MESH:0_0
G0 F4800 X103.935 Y105
;TYPE:WALL-INNER
G1 F1500 E5.6333
G1 F1783.8 X103.935 Y116.435 E5.80921
G1 X103.565 Y116.435 E5.8149
G1 X103.565 Y105 E5.9908
G1 F1560.3 X103.618 Y104.482 E5.99996
G1 F1242.9 X103.672 Y103.964 E6.01146
G1 F1128.2 X103.672 Y103.672 E6.01856
G1 X103.964 Y103.672 E6.02566
G1 F1369.3 X104.782 Y103.57 E6.04218
G1 F1760 X116.435 Y103.565 E6.22386
G1 F1783.8 X116.435 Y103.935 E6.22955
G1 F1774.2 X104.845 Y103.935 E6.4088
G1 F1375 X104.171 Y104.171 E6.42305
G1 F1383.6 X103.935 Y105 E6.44014
G0 F4800 X104.533 Y104.533
G1 F1500 X104.34 Y105 E6.44939
G1 X104.34 Y116.84 E6.66598
G1 X103.16 Y116.84 E6.68756
G1 X103.16 Y103.16 E6.93781
G1 X116.84 Y103.16 E7.18806
G1 X116.84 Y104.34 E7.20965
G1 X104.902 Y104.34 E7.42803
G1 X104.533 Y104.533 E7.43565
;;retract move;;
G1 F3840 X104.34 Y105 E5.06065
G1 X104.34 Y106.495 E2.68565
G1 F1500 E2.43565
G0 F4800 X104.844 Y104.844
;TYPE:WALL-OUTER
G1 F1500 E7.43565
G1 X104.78 Y105 E7.43873
G1 X104.78 Y117.28 E7.66337
G1 X102.72 Y117.28 E7.70105
G1 X102.72 Y102.72 E7.9674
G1 X117.28 Y102.72 E8.23375
G1 X117.28 Y104.78 E8.27143
G1 X104.961 Y104.783 E8.49679
G1 X104.844 Y104.844 E8.4992
;MESH:NONMESH
G0 F600 X104.844 Y104.844 Z0.2
G0 F4800 X104.838 Y103.975
;TIME_ELAPSED:25.067552

;LAYER:1
M106 S127.5
;TYPE:WALL-INNER
;MESH:0_0
G1 F975.2 X104.292 Y104.292 E8.51041
G1 F979.7 X103.975 Y105 E8.52411
G1 F925.3 X103.975 Y106.475 E8.55171
G1 X103.975 Y108.475 E8.58913
G1 X103.975 Y110.475 E8.62654
G1 X103.975 Y112.475 E8.66396
G1 X103.975 Y114.475 E8.70138
G1 X103.975 Y116.475 E8.7388
G1 X103.525 Y116.475 E8.74722
G1 X103.525 Y115 E8.77481
G1 X103.525 Y113 E8.81223
G1 X103.525 Y111 E8.84965
G1 X103.525 Y108.999 E8.88708
G1 X103.525 Y107 E8.92448
G1 X103.525 Y105 E8.9619
G1 F979.7 X103.5 Y103.964 E8.98021
G1 F1041 X103.5 Y103.5 E8.98793
G1 X103.964 Y103.5 E8.99564
G1 F968.4 X104.782 Y103.53 E9.01028
G1 F905.2 X106.475 Y103.529 E9.04266
G1 X108.475 Y103.528 E9.0809
G1 X110.475 Y103.527 E9.11915
G1 X112.475 Y103.526 E9.1574
G1 X114.475 Y103.525 E9.19565
G1 F915.1 X116.475 Y103.525 E9.23349
G1 F925.3 X116.475 Y103.975 E9.2419
G1 X114.838 Y103.975 E9.27253
G1 X112.838 Y103.975 E9.30995
G1 X110.838 Y103.975 E9.34737
G1 X108.838 Y103.975 E9.38478
G1 X106.838 Y103.975 E9.4222
G1 F921.2 X104.838 Y103.975 E9.45979
G0 F6000 X104.913 Y104.4
G1 F1041 X104.575 Y104.575 E9.46611
G1 X104.4 Y105 E9.47376
G1 X104.4 Y106.9 E9.50536
G1 X104.4 Y108.9 E9.53862
G1 X104.4 Y110.9 E9.57188
G1 X104.4 Y112.9 E9.60514
G1 X104.4 Y114.9 E9.6384
G1 X104.4 Y116.9 E9.67166
G1 X103.1 Y116.9 E9.69328
G1 X103.1 Y103.1 E9.92277
G1 X104.9 Y103.1 E9.9527
G1 X106.9 Y103.1 E9.98596
G1 X108.9 Y103.1 E10.01922
G1 X110.9 Y103.1 E10.05248
G1 X112.9 Y103.1 E10.08574
G1 X114.9 Y103.1 E10.119
G1 X116.9 Y103.1 E10.15227
G1 X116.9 Y104.4 E10.17388
G1 X114.913 Y104.4 E10.20693
G1 X112.913 Y104.4 E10.24019
G1 X110.913 Y104.4 E10.27345
G1 X108.913 Y104.4 E10.30671
G1 X106.913 Y104.4 E10.33997
G1 X104.913 Y104.4 E10.37323
;;retract move;;
G1 F4800 X104.575 Y104.575 E8.7899
G1 X104.4 Y105 E7.20656
G1 X104.4 Y106.161 E5.62323
G1 F1500 E5.37323
G0 F6000 X104.965 Y104.803
;TYPE:WALL-OUTER
G1 F1500 E10.37323
G1 F1041 X104.8 Y105 E10.3775
G1 X104.8 Y105.4 E10.38415
G1 X104.799 Y106.899 E10.40908
G1 X104.8 Y108.899 E10.44234
G1 X104.8 Y110.899 E10.4756
G1 X104.8 Y112.899 E10.50886
G1 X104.799 Y114.899 E10.54212
G1 X104.8 Y116.899 E10.57538
G1 X104.8 Y117.3 E10.58205
G1 X104.7 Y117.3 E10.58372
G1 X102.7 Y117.3 E10.61698
G1 X102.7 Y102.7 E10.85977
G1 X103.1 Y102.7 E10.86643
G1 X104.899 Y102.7 E10.89634
G1 X106.899 Y102.7 E10.9296
G1 X108.899 Y102.7 E10.96286
G1 X110.899 Y102.7 E10.99612
G1 X112.899 Y102.7 E11.02938
G1 X114.899 Y102.699 E11.06264
G1 X116.899 Y102.7 E11.0959
G1 X117.3 Y102.7 E11.10257
G1 X117.3 Y102.8 E11.10424
G1 X117.3 Y104.8 E11.1375
G1 X116.9 Y104.8 E11.14415
G1 X115.364 Y104.8 E11.16969
G1 X113.364 Y104.8 E11.20295
G1 X111.364 Y104.801 E11.23621
G1 X109.364 Y104.801 E11.26947
G1 X107.364 Y104.802 E11.30273
G1 X105.364 Y104.802 E11.33599
G1 X104.965 Y104.803 E11.34263
;;retract move;;
G1 F4800 X104.8 Y105 E9.75929
